src/assets/icons/clipboard.svg

<svg width="14" height="14" viewBox="0 0 14 14" fill="none" xmlns="http://www.w3.org/2000/svg">
<g id="clipboard">
<path id="Vector" fill-rule="evenodd" clip-rule="evenodd" d="M6.37847 1.2C5.94854 1.2 5.60001 1.54853 5.60001 1.97846V3.15077H8.40001V1.97846C8.40001 1.54853 8.05148 1.2 7.62154 1.2H6.37847ZM9.50739 1.37846H10.2C11.415 1.37846 12.4 2.36344 12.4 3.57846V11.8C12.4 13.015 11.415 14 10.2 14H3.80001C2.58498 14 1.60001 13.015 1.60001 11.8V3.57846C1.60001 2.36344 2.58498 1.37846 3.80001 1.37846H4.49262C4.74672 0.579117 5.49496 0 6.37847 0H7.62154C8.50505 0 9.2533 0.579117 9.50739 1.37846ZM9.60001 2.57846V3.67077C9.60001 4.04632 9.29556 4.35077 8.92001 4.35077H5.08001C4.70445 4.35077 4.40001 4.04632 4.40001 3.67077V2.57846H3.80001C3.24772 2.57846 2.80001 3.02618 2.80001 3.57846V11.8C2.80001 12.3523 3.24772 12.8 3.80001 12.8H10.2C10.7523 12.8 11.2 12.3523 11.2 11.8V3.57846C11.2 3.02618 10.7523 2.57846 10.2 2.57846H9.60001Z" fill="black"/>
</g>
</svg>

<svg xmlns="http://www.w3.org/2000/svg" fill="none" viewBox="0 0 14 14"><path fill="#000" fill-rule="evenodd" d="M6.378 1.2a.78.78 0 0 0-.778.778v1.173h2.8V1.978a.78.78 0 0 0-.778-.778zm3.13.178h.692a2.2 2.2 0 0 1 2.2 2.2V11.8a2.2 2.2 0 0 1-2.2 2.2H3.8a2.2 2.2 0 0 1-2.2-2.2V3.578a2.2 2.2 0 0 1 2.2-2.2h.693A1.98 1.98 0 0 1 6.378 0h1.244c.883 0 1.631.58 1.885 1.378m.092 1.2v1.093a.68.68 0 0 1-.68.68H5.08a.68.68 0 0 1-.68-.68V2.578h-.6a1 1 0 0 0-1 1V11.8a1 1 0 0 0 1 1h6.4a1 1 0 0 0 1-1V3.578a1 1 0 0 0-1-1z" clip-rule="evenodd"/></svg>
